X:21007
T:BANTRY HORNPIPE, The 
B:DMI.0937
Z:Nordberg/Black
R:hornpipe
%Q:1/4=150
M:C|
L:1/8
K:G
P:simplified version
dc|BAGB cBcA|dbge dedB|cecA (3Bcd BG|FGAG FDEG|
BABG cBcA|dbge dedB|cedc BGAF|G2B2G2:|
%
cB|AGAB cBce|dfge dcdB|cecA (3Bcd BG|FGAG FDEF|
GFGA BGFD|GABG ABcA|dgfe d2cA|G2B2G2:|
%
Bc|dgBg dgBg|g2bg fdef|gage dedc|BGAF GDB,D|
Ggge dBGB|cBcd efge|dgfe d2cA|G2B2G2:|
%
dc|BGGF GDB,D|(3GFG BG ABcA|dcde fdcA|d2cA d2cA|
BGGF GDB,D|G2BG ABcA|dgfe d2cA|G2B2G2:|


%%%

